packages/nouns-webapp/src/assets/icons/VotePassed.svg

<svg width="61" height="28" viewBox="0 0 61 28" fill="none" xmlns="http://www.w3.org/2000/svg">
<rect width="61" height="28" rx="8" fill="#43B369" fill-opacity="0.1"/>
<path d="M8.98 19H10.66V15.696H12.41C13.6607 15.696 14.5893 15.4067 15.196 14.828C15.812 14.2493 16.12 13.4513 16.12 12.434C16.12 11.398 15.8213 10.6 15.224 10.04C14.6267 9.48 13.6887 9.2 12.41 9.2H8.98V19ZM12.34 10.74C13.0307 10.74 13.5393 10.8893 13.866 11.188C14.1927 11.4867 14.356 11.902 14.356 12.434C14.356 13.0033 14.1973 13.4327 13.88 13.722C13.572 14.0113 13.0587 14.156 12.34 14.156H10.66V10.74H12.34ZM19.6598 19.14C20.1358 19.14 20.5558 19.0607 20.9198 18.902C21.2838 18.734 21.6105 18.4867 21.8998 18.16H21.9278L22.0678 19H23.3278V12H21.7038V12.7H21.6758C21.4518 12.4387 21.1578 12.2333 20.7938 12.084C20.4391 11.9347 20.0611 11.86 19.6598 11.86C19.2305 11.86 18.8338 11.9347 18.4698 12.084C18.1151 12.224 17.8071 12.4433 17.5458 12.742C17.2938 13.0313 17.0978 13.3953 16.9578 13.834C16.8178 14.2633 16.7478 14.7673 16.7478 15.346V15.654C16.7478 16.242 16.8178 16.7553 16.9578 17.194C17.0978 17.6233 17.2938 17.9827 17.5458 18.272C17.7978 18.5613 18.1011 18.7807 18.4558 18.93C18.8198 19.07 19.2211 19.14 19.6598 19.14ZM20.0798 17.656C19.5851 17.656 19.1885 17.4927 18.8898 17.166C18.6005 16.8393 18.4558 16.3353 18.4558 15.654V15.346C18.4558 14.646 18.6005 14.1373 18.8898 13.82C19.1791 13.5027 19.5758 13.344 20.0798 13.344C20.5745 13.344 20.9665 13.5073 21.2558 13.834C21.5545 14.1607 21.7038 14.66 21.7038 15.332V15.64C21.7038 16.34 21.5591 16.8533 21.2698 17.18C20.9805 17.4973 20.5838 17.656 20.0798 17.656ZM27.8122 19.126C28.2882 19.126 28.6989 19.0747 29.0442 18.972C29.3989 18.86 29.6882 18.7107 29.9122 18.524C30.1455 18.3373 30.3182 18.118 30.4302 17.866C30.5515 17.6047 30.6122 17.3247 30.6122 17.026C30.6122 16.55 30.5095 16.1767 30.3042 15.906C30.1082 15.626 29.8609 15.4067 29.5622 15.248C29.2635 15.0893 28.9415 14.9727 28.5962 14.898C28.2509 14.814 27.9289 14.7347 27.6302 14.66C27.3315 14.5853 27.0795 14.4967 26.8742 14.394C26.6782 14.282 26.5802 14.114 26.5802 13.89C26.5802 13.6847 26.6549 13.5213 26.8042 13.4C26.9535 13.2787 27.2195 13.218 27.6022 13.218C28.0035 13.218 28.2882 13.2927 28.4562 13.442C28.6335 13.582 28.7595 13.8013 28.8342 14.1H30.5422C30.4769 13.4187 30.2109 12.8773 29.7442 12.476C29.2869 12.0747 28.5729 11.874 27.6022 11.874C26.6782 11.874 25.9922 12.07 25.5442 12.462C25.0962 12.8447 24.8722 13.3253 24.8722 13.904C24.8722 14.352 24.9702 14.7067 25.1662 14.968C25.3715 15.2293 25.6235 15.4393 25.9222 15.598C26.2209 15.7473 26.5429 15.864 26.8882 15.948C27.2335 16.0227 27.5555 16.102 27.8542 16.186C28.1529 16.27 28.4002 16.3773 28.5962 16.508C28.8015 16.6293 28.9042 16.8067 28.9042 17.04C28.9042 17.264 28.8202 17.446 28.6522 17.586C28.4842 17.7167 28.1809 17.782 27.7422 17.782C27.3222 17.782 27.0189 17.7027 26.8322 17.544C26.6455 17.376 26.5149 17.1147 26.4402 16.76H24.7322C24.8069 17.4973 25.0822 18.076 25.5582 18.496C26.0342 18.916 26.7855 19.126 27.8122 19.126ZM34.6755 19.126C35.1515 19.126 35.5621 19.0747 35.9075 18.972C36.2621 18.86 36.5515 18.7107 36.7755 18.524C37.0088 18.3373 37.1815 18.118 37.2935 17.866C37.4148 17.6047 37.4755 17.3247 37.4755 17.026C37.4755 16.55 37.3728 16.1767 37.1675 15.906C36.9715 15.626 36.7241 15.4067 36.4255 15.248C36.1268 15.0893 35.8048 14.9727 35.4595 14.898C35.1141 14.814 34.7921 14.7347 34.4935 14.66C34.1948 14.5853 33.9428 14.4967 33.7375 14.394C33.5415 14.282 33.4435 14.114 33.4435 13.89C33.4435 13.6847 33.5181 13.5213 33.6675 13.4C33.8168 13.2787 34.0828 13.218 34.4655 13.218C34.8668 13.218 35.1515 13.2927 35.3195 13.442C35.4968 13.582 35.6228 13.8013 35.6975 14.1H37.4055C37.3401 13.4187 37.0741 12.8773 36.6075 12.476C36.1501 12.0747 35.4361 11.874 34.4655 11.874C33.5415 11.874 32.8555 12.07 32.4075 12.462C31.9595 12.8447 31.7355 13.3253 31.7355 13.904C31.7355 14.352 31.8335 14.7067 32.0295 14.968C32.2348 15.2293 32.4868 15.4393 32.7855 15.598C33.0841 15.7473 33.4061 15.864 33.7515 15.948C34.0968 16.0227 34.4188 16.102 34.7175 16.186C35.0161 16.27 35.2635 16.3773 35.4595 16.508C35.6648 16.6293 35.7675 16.8067 35.7675 17.04C35.7675 17.264 35.6835 17.446 35.5155 17.586C35.3475 17.7167 35.0441 17.782 34.6055 17.782C34.1855 17.782 33.8821 17.7027 33.6955 17.544C33.5088 17.376 33.3781 17.1147 33.3035 16.76H31.5955C31.6701 17.4973 31.9455 18.076 32.4215 18.496C32.8975 18.916 33.6488 19.126 34.6755 19.126ZM41.8188 19.14C42.6681 19.14 43.3634 18.9487 43.9048 18.566C44.4554 18.1833 44.8101 17.628 44.9688 16.9H43.2888C43.1954 17.1893 43.0181 17.4087 42.7568 17.558C42.5048 17.698 42.1688 17.768 41.7488 17.768C41.2168 17.768 40.8201 17.628 40.5588 17.348C40.2974 17.068 40.1434 16.62 40.0968 16.004H45.0387V15.416C45.0387 14.8373 44.9594 14.3287 44.8008 13.89C44.6514 13.4513 44.4321 13.0827 44.1428 12.784C43.8628 12.476 43.5174 12.2473 43.1068 12.098C42.7054 11.9393 42.2528 11.86 41.7488 11.86C41.2448 11.86 40.7874 11.9393 40.3768 12.098C39.9754 12.2473 39.6301 12.4713 39.3408 12.77C39.0608 13.0687 38.8414 13.4373 38.6828 13.876C38.5334 14.3053 38.4588 14.7953 38.4588 15.346V15.654C38.4588 16.214 38.5334 16.7087 38.6828 17.138C38.8414 17.5673 39.0654 17.9313 39.3548 18.23C39.6441 18.5287 39.9941 18.7573 40.4048 18.916C40.8248 19.0653 41.2961 19.14 41.8188 19.14ZM41.7488 13.232C42.2528 13.232 42.6354 13.358 42.8968 13.61C43.1581 13.8527 43.3214 14.2493 43.3868 14.8H40.1108C40.1854 14.2493 40.3534 13.8527 40.6148 13.61C40.8761 13.358 41.2541 13.232 41.7488 13.232ZM48.8893 19.14C49.356 19.14 49.7713 19.0607 50.1353 18.902C50.4993 18.7433 50.8213 18.5007 51.1013 18.174H51.1293L51.2693 19H52.5153V9.34H50.9053V12.784H50.8773C50.6626 12.532 50.378 12.3313 50.0233 12.182C49.6686 12.0327 49.2906 11.958 48.8893 11.958C48.4693 11.958 48.082 12.0327 47.7273 12.182C47.3726 12.322 47.0693 12.5367 46.8173 12.826C46.5653 13.1153 46.3693 13.4747 46.2293 13.904C46.0893 14.3333 46.0193 14.8327 46.0193 15.402V15.71C46.0193 16.2793 46.0846 16.7787 46.2153 17.208C46.3553 17.6373 46.5513 17.9967 46.8033 18.286C47.0553 18.5753 47.3586 18.79 47.7133 18.93C48.068 19.07 48.46 19.14 48.8893 19.14ZM49.3093 17.67C48.824 17.67 48.4366 17.5113 48.1473 17.194C47.858 16.8767 47.7133 16.382 47.7133 15.71V15.402C47.7133 14.7113 47.8533 14.212 48.1333 13.904C48.4133 13.5867 48.8053 13.428 49.3093 13.428C49.7946 13.428 50.182 13.5867 50.4713 13.904C50.7606 14.2213 50.9053 14.716 50.9053 15.388V15.696C50.9053 16.3867 50.7653 16.8907 50.4853 17.208C50.2053 17.516 49.8133 17.67 49.3093 17.67Z" fill="#43B369"/>
</svg>

<svg xmlns="http://www.w3.org/2000/svg" width="61" height="28" fill="none">
    <rect width="61" height="28" fill="#43B369" fill-opacity=".1" rx="8"/>
    <path fill="#43B369" d="M8.98 19h1.68v-3.304h1.75q1.876 0 2.786-.868.924-.869.924-2.394 0-1.554-.896-2.394T12.41 9.2H8.98zm3.36-8.26q1.036 0 1.526.448t.49 1.246q0 .855-.476 1.288-.462.434-1.54.434h-1.68V10.74zm7.32 8.4q.714 0 1.26-.238.546-.252.98-.742h.028l.14.84h1.26v-7h-1.624v.7h-.028a2.3 2.3 0 0 0-.882-.616 2.9 2.9 0 0 0-1.134-.224q-.644 0-1.19.224-.532.21-.924.658-.378.434-.588 1.092-.21.644-.21 1.512v.308q0 .882.21 1.54.21.645.588 1.078.378.435.91.658.546.21 1.204.21m.42-1.484q-.742 0-1.19-.49-.434-.49-.434-1.512v-.308q0-1.05.434-1.526t1.19-.476q.742 0 1.176.49.448.49.448 1.498v.308q0 1.05-.434 1.54-.434.476-1.19.476m7.732 1.47a4.4 4.4 0 0 0 1.232-.154q.532-.168.868-.448.35-.28.518-.658a2 2 0 0 0 .182-.84q0-.714-.308-1.12-.294-.42-.742-.658a3.7 3.7 0 0 0-.966-.35l-.966-.238a3.7 3.7 0 0 1-.756-.266.55.55 0 0 1-.294-.504q0-.308.224-.49.225-.182.798-.182.602 0 .854.224.266.21.378.658h1.708q-.098-1.022-.798-1.624-.685-.602-2.142-.602-1.386 0-2.058.588a1.82 1.82 0 0 0-.672 1.442q0 .672.294 1.064.308.392.756.63.448.224.966.35.518.112.966.238t.742.322a.58.58 0 0 1 .308.532.68.68 0 0 1-.252.546q-.252.196-.91.196-.63 0-.91-.238-.28-.253-.392-.784h-1.708q.112 1.106.826 1.736t2.254.63m6.863 0q.715 0 1.233-.154.531-.168.867-.448.351-.28.519-.658a2 2 0 0 0 .181-.84q0-.714-.308-1.12-.294-.42-.742-.658a3.7 3.7 0 0 0-.965-.35l-.967-.238a3.7 3.7 0 0 1-.756-.266.55.55 0 0 1-.294-.504q0-.308.224-.49.225-.182.798-.182.602 0 .854.224.267.21.378.658h1.709q-.099-1.022-.798-1.624-.687-.602-2.142-.602-1.386 0-2.059.588a1.82 1.82 0 0 0-.671 1.442q0 .672.293 1.064.309.392.756.63.449.224.967.35.518.112.965.238.45.126.742.322a.58.58 0 0 1 .308.532.68.68 0 0 1-.252.546q-.251.196-.91.196-.63 0-.91-.238-.28-.253-.392-.784h-1.707q.111 1.106.826 1.736.714.63 2.254.63m7.144.014q1.274 0 2.086-.574.825-.574 1.064-1.666h-1.68q-.14.435-.532.658-.378.21-1.008.21-.798 0-1.19-.42-.393-.42-.462-1.344h4.942v-.588q0-.868-.238-1.526a2.9 2.9 0 0 0-.658-1.106 2.56 2.56 0 0 0-1.036-.686 3.7 3.7 0 0 0-1.358-.238q-.757 0-1.372.238-.603.224-1.036.672-.42.448-.658 1.106-.224.645-.224 1.47v.308q0 .84.224 1.484.237.644.672 1.092t1.05.686q.63.224 1.414.224m-.07-5.908q.755 0 1.148.378.391.365.49 1.19H40.11q.111-.825.504-1.19.392-.378 1.134-.378m7.14 5.908q.7 0 1.246-.238t.966-.728h.028l.14.826h1.246V9.34h-1.61v3.444h-.028a2.24 2.24 0 0 0-.854-.602 2.9 2.9 0 0 0-1.134-.224q-.63 0-1.162.224a2.3 2.3 0 0 0-.91.644q-.378.435-.588 1.078-.21.645-.21 1.498v.308q0 .855.196 1.498.21.645.588 1.078.379.434.91.644.532.21 1.176.21m.42-1.47q-.727 0-1.162-.476t-.434-1.484v-.308q0-1.036.42-1.498.42-.476 1.176-.476.729 0 1.162.476.434.476.434 1.484v.308q0 1.036-.42 1.512-.42.462-1.176.462"/>
</svg>
